assets/icons/playbutton.svg

<svg width="220" height="56" viewBox="0 0 220 56" fill="none" xmlns="http://www.w3.org/2000/svg">
<rect width="220" height="56" rx="28" fill="url(#paint0_linear_6606_836)"/>
<rect x="1" y="1" width="218" height="54" rx="27" stroke="url(#paint1_linear_6606_836)" stroke-width="2"/>
<rect x="4.5" y="4.5" width="211" height="47" rx="23.5" fill="url(#paint2_linear_6606_836)" stroke="#320033"/>
<g style="mix-blend-mode:overlay">
<rect x="15" y="7" width="190" height="28" rx="14" fill="url(#paint3_linear_6606_836)"/>
</g>
<path d="M94.0916 34V22.3636H98.8984C99.7696 22.3636 100.522 22.5341 101.154 22.875C101.79 23.2121 102.281 23.6837 102.626 24.2898C102.97 24.892 103.143 25.5928 103.143 26.392C103.143 27.1951 102.967 27.8977 102.614 28.5C102.266 29.0985 101.768 29.5625 101.12 29.892C100.472 30.2216 99.7034 30.3864 98.8132 30.3864H95.8473V28.1705H98.2905C98.7147 28.1705 99.0689 28.0966 99.353 27.9489C99.6409 27.8011 99.8587 27.5947 100.006 27.3295C100.154 27.0606 100.228 26.7481 100.228 26.392C100.228 26.0322 100.154 25.7216 100.006 25.4602C99.8587 25.1951 99.6409 24.9905 99.353 24.8466C99.0651 24.7027 98.7109 24.6307 98.2905 24.6307H96.9041V34H94.0916ZM107.308 22.3636V34H104.529V22.3636H107.308ZM111.536 34.1477C110.979 34.1477 110.485 34.0549 110.053 33.8693C109.625 33.6799 109.286 33.3958 109.036 33.017C108.79 32.6345 108.667 32.1553 108.667 31.5795C108.667 31.0947 108.752 30.6856 108.923 30.3523C109.093 30.0189 109.328 29.7481 109.627 29.5398C109.926 29.3314 110.271 29.1742 110.661 29.0682C111.051 28.9583 111.468 28.8845 111.911 28.8466C112.407 28.8011 112.807 28.7538 113.11 28.7045C113.413 28.6515 113.633 28.5777 113.769 28.483C113.909 28.3845 113.979 28.2462 113.979 28.0682V28.0398C113.979 27.7481 113.879 27.5227 113.678 27.3636C113.478 27.2045 113.207 27.125 112.866 27.125C112.498 27.125 112.203 27.2045 111.979 27.3636C111.756 27.5227 111.614 27.7424 111.553 28.0227L108.991 27.9318C109.067 27.4015 109.262 26.928 109.576 26.5114C109.894 26.0909 110.33 25.7614 110.883 25.5227C111.44 25.2803 112.108 25.1591 112.888 25.1591C113.445 25.1591 113.959 25.2254 114.428 25.358C114.898 25.4867 115.307 25.6761 115.656 25.9261C116.004 26.1723 116.273 26.4754 116.462 26.8352C116.656 27.1951 116.752 27.6061 116.752 28.0682V34H114.138V32.7841H114.07C113.915 33.0795 113.716 33.3295 113.474 33.5341C113.235 33.7386 112.953 33.892 112.627 33.9943C112.305 34.0966 111.942 34.1477 111.536 34.1477ZM112.394 32.3295C112.693 32.3295 112.962 32.2689 113.201 32.1477C113.443 32.0265 113.637 31.8598 113.781 31.6477C113.924 31.4318 113.996 31.1818 113.996 30.8977V30.0682C113.917 30.1098 113.82 30.1477 113.707 30.1818C113.597 30.2159 113.476 30.2481 113.343 30.2784C113.21 30.3087 113.074 30.3352 112.934 30.358C112.794 30.3807 112.659 30.4015 112.531 30.4205C112.269 30.4621 112.046 30.5265 111.86 30.6136C111.678 30.7008 111.538 30.8144 111.44 30.9545C111.345 31.0909 111.298 31.2538 111.298 31.4432C111.298 31.7311 111.4 31.9508 111.604 32.1023C111.813 32.2538 112.076 32.3295 112.394 32.3295ZM119.837 37.2727C119.504 37.2727 119.19 37.2462 118.894 37.1932C118.599 37.1439 118.345 37.0777 118.133 36.9943L118.746 34.9773C119.019 35.0682 119.265 35.1212 119.485 35.1364C119.709 35.1515 119.9 35.1155 120.059 35.0284C120.222 34.9451 120.347 34.7955 120.434 34.5795L120.542 34.3182L117.44 25.2727H120.349L121.957 31.5H122.048L123.678 25.2727H126.604L123.315 34.8352C123.156 35.3125 122.93 35.733 122.638 36.0966C122.351 36.464 121.978 36.7519 121.519 36.9602C121.065 37.1686 120.504 37.2727 119.837 37.2727Z" fill="white"/>
<defs>
<linearGradient id="paint0_linear_6606_836" x1="110" y1="0" x2="110" y2="56" gradientUnits="userSpaceOnUse">
<stop stop-color="#FFEB3C"/>
<stop offset="0.135" stop-color="#FF730E"/>
<stop offset="0.425" stop-color="#B3330A"/>
<stop offset="0.66" stop-color="#FFE600"/>
<stop offset="1" stop-color="#FF730E"/>
</linearGradient>
<linearGradient id="paint1_linear_6606_836" x1="110" y1="0" x2="110" y2="56" gradientUnits="userSpaceOnUse">
<stop stop-color="#FF730E"/>
<stop offset="0.295" stop-color="#C03900"/>
<stop offset="0.525" stop-color="#DBFF00"/>
<stop offset="0.97" stop-color="#CE7C00"/>
</linearGradient>
<linearGradient id="paint2_linear_6606_836" x1="110" y1="4" x2="110" y2="52" gradientUnits="userSpaceOnUse">
<stop stop-color="#EE27FF"/>
<stop offset="0.395" stop-color="#AA15B7"/>
<stop offset="0.78" stop-color="#6A0672"/>
<stop offset="1" stop-color="#7F028A"/>
</linearGradient>
<linearGradient id="paint3_linear_6606_836" x1="110" y1="7" x2="110" y2="35" gradientUnits="userSpaceOnUse">
<stop stop-color="white"/>
<stop offset="1" stop-color="white" stop-opacity="0"/>
</linearGradient>
</defs>
</svg>

<svg xmlns="http://www.w3.org/2000/svg" width="220" height="56" fill="none" xmlns:v="https://vecta.io/nano"><rect width="220" height="56" rx="28" fill="url(#A)"/><rect x="1" y="1" width="218" height="54" rx="27" stroke="url(#B)" stroke-width="2"/><rect x="4.5" y="4.5" width="211" height="47" rx="23.5" fill="url(#C)" stroke="#320033"/><rect x="15" y="7" width="190" height="28" rx="14" fill="url(#D)" style="mix-blend-mode:overlay"/><path d="M94.092 34V22.364h4.807c.871 0 1.624.17 2.256.511s1.127.809 1.472 1.415.517 1.303.517 2.102-.176 1.506-.529 2.108-.846 1.063-1.494 1.392-1.417.494-2.307.494h-2.966v-2.216h2.443c.424 0 .778-.074 1.063-.222s.506-.354.653-.619.222-.581.222-.937-.074-.67-.222-.932-.365-.47-.653-.614-.642-.216-1.062-.216h-1.386V34h-2.812zm13.216-11.636V34h-2.779V22.364h2.779zm4.228 11.784c-.557 0-1.051-.093-1.483-.278a2.31 2.31 0 0 1-1.017-.852c-.246-.383-.369-.862-.369-1.438 0-.485.085-.894.256-1.227a2.18 2.18 0 0 1 .704-.812 3.31 3.31 0 0 1 1.034-.472c.39-.11.807-.184 1.25-.222l1.199-.142c.303-.053.523-.127.659-.221s.21-.237.21-.415v-.028c0-.292-.1-.517-.301-.676s-.471-.239-.812-.239c-.368 0-.663.079-.887.239s-.365.379-.426.659l-2.562-.091c.076-.53.271-1.004.585-1.42s.754-.75 1.307-.989 1.225-.364 2.005-.364a5.65 5.65 0 0 1 1.54.199c.47.129.879.318 1.228.568s.617.549.806.909.29.771.29 1.233V34h-2.614v-1.216h-.068c-.155.295-.354.545-.596.75s-.521.358-.847.46-.685.153-1.091.153zm.858-1.818a1.76 1.76 0 0 0 .807-.182c.242-.121.436-.288.58-.5s.215-.466.215-.75v-.829a1.65 1.65 0 0 1-.289.114l-.364.097-.409.08-.403.063c-.262.042-.485.106-.671.193s-.322.201-.42.341-.142.299-.142.489c0 .288.102.508.306.659.209.151.472.227.79.227zm7.443 4.943c-.333 0-.647-.026-.943-.08s-.549-.115-.761-.199l.613-2.017a3.03 3.03 0 0 0 .739.159c.224.015.415-.021.574-.108s.288-.233.375-.449l.108-.261-3.102-9.045h2.909l1.608 6.227h.091l1.63-6.227h2.926l-3.289 9.563c-.159.477-.385.898-.677 1.261s-.66.655-1.119.864-1.015.313-1.682.313z" fill="#fff"/><defs><linearGradient id="A" x1="110" y1="0" x2="110" y2="56" gradientUnits="userSpaceOnUse"><stop stop-color="#ffeb3c"/><stop offset=".135" stop-color="#ff730e"/><stop offset=".425" stop-color="#b3330a"/><stop offset=".66" stop-color="#ffe600"/><stop offset="1" stop-color="#ff730e"/></linearGradient><linearGradient id="B" x1="110" y1="0" x2="110" y2="56" gradientUnits="userSpaceOnUse"><stop stop-color="#ff730e"/><stop offset=".295" stop-color="#c03900"/><stop offset=".525" stop-color="#dbff00"/><stop offset=".97" stop-color="#ce7c00"/></linearGradient><linearGradient id="C" x1="110" y1="4" x2="110" y2="52" gradientUnits="userSpaceOnUse"><stop stop-color="#ee27ff"/><stop offset=".395" stop-color="#aa15b7"/><stop offset=".78" stop-color="#6a0672"/><stop offset="1" stop-color="#7f028a"/></linearGradient><linearGradient id="D" x1="110" y1="7" x2="110" y2="35" gradientUnits="userSpaceOnUse"><stop stop-color="#fff"/><stop offset="1" stop-color="#fff" stop-opacity="0"/></linearGradient></defs></svg>
